T: Chicken That Made The Soup, The
M: 6/8
L: 1/8
K: Dmaj
dAF G2 G | AGF E2 F | DED DFA | d2 d f2 e |dAF G2 G | AGF e3 | ded fef | d3 d2 :|BAA FAA | dAA FAA | BAA AFA | d3 d2 d |BAA FAA | dAF F2 D | EDE FEF | D3 d2 d |BAA FAA | dAA F3 | BAA AFA | d2 d f2 e |d2 d c2 c | BcB AFA | B2 A ABc | dcd f2 |]
